svgs/follow-up-2.svg

<?xml version="1.0" encoding="UTF-8"?>
<svg width="1000px" height="1000px" viewBox="0 0 1000 1000" version="1.1" xmlns="http://www.w3.org/2000/svg" xmlns:xlink="http://www.w3.org/1999/xlink">
    <!-- Generator: Sketch 52.2 (67145) - http://www.bohemiancoding.com/sketch -->
    <title>follow-up-2</title>
    <desc>Created with Sketch.</desc>
    <g id="follow-up-2" stroke="none" stroke-width="1" fill="none" fill-rule="evenodd">
        <path d="M631.644718,716.774448 C617.566882,707.941583 598.604113,711.541445 587.878338,726.332921 C587.159768,727.200999 580.268525,735.662517 577.985919,738.385073 C518.753255,809.034254 446.569266,803.757585 324.537311,687.074441 C202.394557,570.285354 196.543092,497.460693 270.462938,439.209874 C273.573136,436.758955 283.260848,429.379488 285.437143,427.79133 C298.518038,419.010836 301.884256,402.448674 293.588439,390.097618 L204.267704,259.058998 C192.150422,242.956718 176.711902,231.82952 171.138721,232.780027 C159.956744,234.687113 133.191441,249.165441 112.414872,268.851244 C83.391219,296.351159 66.6312648,330.880759 66.6312648,372.799727 C66.6312648,469.965683 146.419606,601.130756 278.90937,729.175507 C410.418573,856.272597 546.944482,933.304354 647.783383,933.304354 C692.527438,933.304354 729.137587,918.023141 757.081531,891.910966 C777.952651,872.407979 791.935289,847.753213 793.639165,834.579525 C794.806177,825.556651 791.918678,820.747277 780.639307,812.411257 C778.350662,810.719833 770.527892,805.36461 767.928887,803.585451 L631.644718,716.774448 Z M804.119425,747.583065 L805.378473,748.425902 C804.751385,747.985139 816.284883,755.849964 820.216816,758.75586 C849.000486,780.028435 864.535479,805.903276 859.71895,843.142763 C850.058288,917.835143 762.129571,1000 647.783383,1000 C525.815153,1000 375.381944,915.121353 232.627659,777.156452 C88.3376935,637.707394 0,492.487933 0,372.799727 C0,262.805735 88.1586079,179.275441 159.947019,167.031925 C198.287575,160.492943 231.559856,184.473689 258.394568,220.193683 L348.751262,352.688605 C377.841287,395.993531 366.055587,453.98047 324.35815,481.879677 C323.60599,482.461217 314.274246,489.569531 311.679384,491.614352 C273.156781,521.971196 275.222985,547.686235 370.562236,638.846648 C467.172055,731.22194 495.282782,733.276842 526.946324,695.510461 C528.856845,693.231707 535.564225,684.995946 535.179506,685.582663 C565.148455,643.881424 623.322723,632.837713 667.225344,660.384477 L804.119425,747.583065 Z M468.887709,97.9456457 C450.487993,97.9456457 435.572076,83.0153169 435.572076,64.5978229 C435.572076,46.1803289 450.487993,31.25 468.887709,31.25 C761.956412,31.25 1000,261.307262 1000,545.693478 C1000,564.110972 985.084083,579.041301 966.684368,579.041301 C948.284652,579.041301 933.368735,564.110972 933.368735,545.693478 C933.368735,298.676108 725.670012,97.9456457 468.887709,97.9456457 Z M468.887709,248.288038 C450.487993,248.288038 435.572076,233.357709 435.572076,214.940215 C435.572076,196.522721 450.487993,181.592392 468.887709,181.592392 C676.042192,181.592392 844.438544,344.339072 844.438544,545.693478 C844.438544,564.110972 829.522627,579.041301 811.122912,579.041301 C792.723196,579.041301 777.807279,564.110972 777.807279,545.693478 C777.807279,381.707918 639.755793,248.288038 468.887709,248.288038 Z M468.887709,413.66467 C450.487993,413.66467 435.572076,398.734341 435.572076,380.316847 C435.572076,361.899353 450.487993,346.969024 468.887709,346.969024 C581.53655,346.969024 673.320943,435.674064 673.320943,545.693478 C673.320943,564.110972 658.405026,579.041301 640.00531,579.041301 C621.605595,579.041301 606.689678,564.110972 606.689678,545.693478 C606.689678,473.04291 545.250151,413.66467 468.887709,413.66467 Z" id="Shape" fill="#101010" fill-rule="nonzero"></path>
    </g>
</svg>

<svg width="1000" height="1000" viewBox="0 0 1000 1000" xmlns="http://www.w3.org/2000/svg"><path d="M631.645 716.774c-14.078-8.832-33.04-5.233-43.767 9.559-.718.868-7.61 9.33-9.892 12.052-59.233 70.65-131.417 65.373-253.449-51.31-122.142-116.79-127.994-189.614-54.074-247.865 3.11-2.451 12.798-9.83 14.974-11.419 13.081-8.78 16.447-25.342 8.151-37.693l-89.32-131.039c-12.118-16.102-27.556-27.23-33.13-26.279-11.181 1.907-37.947 16.385-58.723 36.071-29.024 27.5-45.784 62.03-45.784 103.949 0 97.166 79.789 228.33 212.278 356.376 131.51 127.097 268.035 204.128 368.874 204.128 44.744 0 81.355-15.28 109.299-41.393 20.87-19.503 34.853-44.158 36.557-57.331 1.167-9.023-1.72-13.833-13-22.169-2.288-1.691-10.111-7.046-12.71-8.826l-136.284-86.81zm172.474 30.81l1.26.842c-.628-.44 10.906 7.424 14.838 10.33 28.783 21.272 44.318 47.147 39.502 84.387-9.66 74.692-97.59 156.857-211.936 156.857-121.968 0-272.401-84.879-415.155-222.844C88.338 637.707 0 492.488 0 372.8c0-109.994 88.159-193.525 159.947-205.768 38.34-6.54 71.613 17.442 98.448 53.162l90.356 132.495c29.09 43.305 17.305 101.291-24.393 129.19-.752.582-10.084 7.69-12.679 9.735-38.522 30.357-36.456 56.072 58.883 147.233 96.61 92.375 124.72 94.43 156.384 56.663 1.91-2.278 8.618-10.514 8.234-9.927 29.968-41.702 88.143-52.745 132.045-25.199l136.894 87.2zM468.888 97.945c-18.4 0-33.316-14.93-33.316-33.348s14.916-33.348 33.316-33.348C761.956 31.25 1000 261.307 1000 545.693c0 18.418-14.916 33.348-33.316 33.348-18.4 0-33.315-14.93-33.315-33.348 0-247.017-207.699-447.747-464.481-447.747zm0 150.342c-18.4 0-33.316-14.93-33.316-33.348 0-18.417 14.916-33.348 33.316-33.348 207.154 0 375.55 162.747 375.55 364.101 0 18.418-14.915 33.348-33.315 33.348s-33.316-14.93-33.316-33.348c0-163.985-138.051-297.405-308.92-297.405zm0 165.377c-18.4 0-33.316-14.93-33.316-33.348s14.916-33.348 33.316-33.348c112.649 0 204.433 88.705 204.433 198.724 0 18.418-14.916 33.348-33.316 33.348-18.4 0-33.315-14.93-33.315-33.348 0-72.65-61.44-132.028-137.802-132.028z" fill="#101010"/></svg>
